local/share/icons/dracula-icons-main/scalable/apps/idea.svg

<?xml version="1.0" encoding="UTF-8"?>
<svg xmlns="http://www.w3.org/2000/svg" xmlns:xlink="http://www.w3.org/1999/xlink" width="64" height="64" viewBox="0 0 64 64">
<path fill-rule="nonzero" fill="rgb(60%, 54.509804%, 90.588235%)" fill-opacity="1" d="M 15.609375 8.464844 C 15.609375 12.410156 12.410156 15.609375 8.464844 15.609375 C 4.519531 15.609375 1.324219 12.410156 1.324219 8.464844 C 1.324219 4.519531 4.519531 1.324219 8.464844 1.324219 C 12.410156 1.324219 15.609375 4.519531 15.609375 8.464844 Z M 15.609375 8.464844 "/>
<path fill-rule="nonzero" fill="rgb(18.823529%, 18.823529%, 18.823529%)" fill-opacity="1" d="M 5.820312 4.496094 L 11.113281 4.496094 C 11.84375 4.496094 12.433594 5.089844 12.433594 5.820312 L 12.433594 11.113281 C 12.433594 11.84375 11.84375 12.433594 11.113281 12.433594 L 5.820312 12.433594 C 5.089844 12.433594 4.496094 11.84375 4.496094 11.113281 L 4.496094 5.820312 C 4.496094 5.089844 5.089844 4.496094 5.820312 4.496094 Z M 5.820312 4.496094 "/>
<path fill-rule="nonzero" fill="rgb(97.647059%, 97.647059%, 97.647059%)" fill-opacity="1" d="M 7.535156 5.980469 L 7.535156 5.359375 L 5.671875 5.359375 L 5.671875 5.980469 L 6.292969 5.980469 L 6.292969 8.15625 L 5.671875 8.15625 L 5.671875 8.777344 L 7.535156 8.777344 L 7.535156 8.15625 L 6.914062 8.15625 L 6.914062 5.980469 M 8.960938 8.773438 C 8.585938 8.730469 8.320312 8.484375 8.085938 8.269531 L 8.460938 7.84375 C 8.585938 7.972656 8.773438 8.125 8.96875 8.152344 C 9.160156 8.175781 9.410156 8.15625 9.558594 8.027344 C 9.707031 7.902344 9.707031 7.730469 9.707031 7.523438 L 9.707031 5.359375 L 10.328125 5.359375 L 10.328125 7.5625 C 10.328125 8 10.164062 8.292969 10.011719 8.457031 C 9.765625 8.710938 9.445312 8.734375 9.152344 8.777344 "/>
<path fill-rule="nonzero" fill="rgb(97.647059%, 97.647059%, 97.647059%)" fill-opacity="1" d="M 5.050781 10.953125 L 8.15625 10.953125 L 8.15625 11.574219 L 5.050781 11.574219 Z M 5.050781 10.953125 "/>
</svg>

<svg width="64" height="64" version="1.1" viewBox="0 0 16.933 16.933" xmlns="http://www.w3.org/2000/svg">
 <path d="m15.61 8.4665a7.1436 7.1436 0 0 1-7.1436 7.1436 7.1436 7.1436 0 0 1-7.1436-7.1436 7.1436 7.1436 0 0 1 7.1436-7.1436 7.1436 7.1436 0 0 1 7.1436 7.1436z" fill="#998be7" stroke-width=".26458"/>
 <rect x="4.4978" y="4.4978" width="7.9373" height="7.9373" rx="1.3229" ry="1.3229" fill="#303030" style="paint-order:markers stroke fill"/>
 <path d="m7.5347 5.9818v-0.62118h-1.8636v0.62118h0.62118v2.1741h-0.62118v0.62118h1.8636v-0.62118h-0.62118v-2.1741m2.0476 2.7899c-0.37513-0.042846-0.63932-0.28764-0.87562-0.50342l0.37719-0.426c0.12389 0.1286 0.31044 0.28261 0.50413 0.30836 0.1937 0.025744 0.44278 0.00446 0.5924-0.12248 0.14962-0.12697 0.14962-0.29933 0.14962-0.50496v-2.1626h0.62118l-0.0017 2.2c0.0017 0.43758-0.16436 0.73269-0.31782 0.89726-0.24543 0.25121-0.56331 0.27669-0.85988 0.31778" fill="#f9f9f9" stroke-width=".26458"/>
 <path d="m5.05 10.952h3.1059v0.62118h-3.1059z" fill="#f9f9f9" stroke-width=".26458"/>
</svg>
